X: 386
T: Fanshen xiaochang
L: 1/8
M: 2/4
K: G
d> eg2 [I:setbarnb 1]| 
f e d B | 
e g d B | 
A3B | 
d> eg2 | 
f e d B | 
e g d B | 
A4 | 
A> Bd2 | 
B> g e d | 
B A/ B/ d e | 
G2F E | 
D> D d d | 
B AG2 | 
A B G E | 
D4 |]

@@@ Tune index: 9260
